X: 305548
M: 2/4
L: 1/16
K: G
d>BA>B G2B>G | E>GD>B, D2G>A |\
d>BA>B G2B>G | E>GD>B, D2G>A |\
(B>d)(e>g) d>BA>B | G2G2G2 :|
|: B,>D |\


